X:473
T: Duan youtong haozi
N: C0000
O: Asien, Ostasien, China, .....
S: Haozi - Artikel, Essen 1991]
N: Die Phraseneinteilung ist relativ willkrlich. Der Arbeitsrhytmus..
R: Haozi zum Tragen von leimern]
M: 2/4
L: 1/16
K: G
e8 | e4d2e2 | a4g2e2 | d4d2z2 |
a2aaf2f2 | e3dd2e2 | a4g2e2 | d4d2z2 |
a2aaf2f2 | e3dd2e2 | a4g2e2 | d4d2z2 |
a2aad2dB | d4d2e2 | a4g2e2 | d4d2z2

@@@ Tune index: 6474
